public/illustrations/_bus.svg

<svg width="355" height="138" viewBox="0 0 355 138" fill="none" xmlns="http://www.w3.org/2000/svg">
<path d="M324.071 112.391C322.995 118.394 320.418 123.902 316.397 128.376C307.492 139.632 289.383 140.524 279.004 128.164C275.38 124.256 273.001 119.513 271.982 114.246C271.769 113.651 271.713 113.071 271.5 112.462C247.515 112.448 223.658 112.433 199.787 112.575C175.943 112.575 152.228 112.589 128.073 112.688C127.62 113.92 127.054 114.982 126.756 116.228C125.893 119.541 124.321 122.769 122.254 125.488C120.187 128.206 117.44 130.571 114.523 132.185C111.437 133.926 108.166 134.917 104.683 135.314C101.2 135.71 97.8159 135.413 94.5169 134.408C84.7333 131.689 78.8291 124.482 77.3425 114.147C77.2717 113.566 77.2151 112.986 77.0593 111.966C75.0771 111.853 73.109 111.584 71.2543 111.626C63.9342 111.952 59.4459 109.078 56.5859 102.692C53.7117 96.3209 51.7578 89.4824 50.8375 82.3748C50.1579 76.7113 49.1951 71.0195 48.8128 65.2569C48.3314 58.0502 48.4163 50.9285 48.2181 43.7501C47.9208 38.4265 48.0482 33.1594 48.8694 27.9774C49.2517 25.0324 49.9313 22.1158 50.8658 19.3832C53.3152 12.7145 58.384 8.94831 65.0669 6.98026C73.0524 4.88479 81.0662 3.66704 89.3915 3.32723C101.894 2.6901 114.396 2.19466 126.997 1.85486C135.889 1.6 144.879 1.64235 153.884 1.54324C161.19 1.35918 168.51 1.04772 175.83 0.863653C179.993 0.69375 184.255 0.835295 188.545 0.821136C195.992 0.665392 203.454 0.353937 210.745 0.32562C217.188 0.169875 223.502 0.0141586 229.93 0C238.057 0.070793 246.057 0.127414 254.17 0.339792C263.288 0.538013 272.364 1.01936 281.454 1.35917C289.991 1.62818 298.699 1.6282 307.18 3.32723C310.833 3.80863 314.401 4.85634 317.926 6.31468C330.245 11.5109 339.575 19.7371 344.601 32.5364C347.107 39.5732 348.722 46.7942 349.599 54.185C350.704 62.043 351.808 69.901 352.644 77.7165C353.536 86.1126 353.989 94.6077 354.739 102.99C354.852 105.425 353.974 107.747 352.304 109.531C350.647 111.315 348.368 112.292 346.074 112.419C341.642 112.419 337.083 112.377 332.651 112.363C329.933 112.433 327.2 112.504 324.199 112.532L324.071 112.377V112.391ZM244.882 102.098C244.91 98.6712 244.995 95.8253 245.108 92.8378C245.547 83.0401 245.958 73.384 246.397 63.5863C246.539 60.3157 246.666 57.2007 246.808 53.93C246.977 47.2472 247.147 40.5503 247.445 33.8816C247.501 31.3189 247.544 28.7561 247.742 26.2076C247.997 22.1016 250.376 19.2698 254.779 19.4255C261.448 19.737 268.159 19.7653 274.728 19.7653C280.434 19.8078 286.282 19.8646 291.988 19.8929C295.839 19.9778 299.676 20.0486 303.485 20.4026C308.015 20.7141 309.899 22.6821 310.153 27.2836C310.21 29.011 310.253 30.8657 310.295 32.7347L311.371 61.4342C311.739 71.6283 312.235 81.964 312.603 92.1582C312.759 95.3156 312.914 98.4872 313.183 101.8L344.177 101.744L342.109 79.4722C341.826 79.4297 341.713 79.274 341.444 79.104C340.042 78.92 338.641 78.7359 337.253 78.4103C329.622 76.6971 322.924 73.384 319.172 66.0357C316.907 61.5899 315.548 56.7051 315.066 51.6363C314.613 47.4312 314.458 43.2687 314.302 38.9645C313.891 31.2056 313.495 23.4325 313.127 15.3904C308.667 13.5214 304.079 12.4878 299.28 12.1338C291.648 11.5533 283.96 11.3976 276.286 11.1003C267.89 10.8454 259.38 10.4491 250.97 10.3358C243.14 10.1659 235.282 10.1234 227.58 10.1093C221.152 10.1093 214.851 10.2933 208.395 10.4349L186.194 10.9304C181.607 11.0437 177.048 11.0153 172.319 11.1003C165.013 11.2843 157.707 11.4543 150.401 11.6383C144.398 11.7091 138.409 11.6383 132.377 11.8366C125.071 12.0206 117.865 12.4878 110.573 12.5303C101.002 12.5586 91.3596 13.1391 81.9016 14.47C77.1018 15.1213 72.2878 15.9142 67.5589 17.146C65.5058 17.585 63.6511 18.6327 62.2918 20.3034C60.9468 21.8467 60.1114 23.8714 59.984 25.8536C59.0353 30.8657 58.6389 36.1044 58.6672 41.244C58.9504 44.5713 58.7946 47.8277 58.9221 51.2682C59.1769 56.875 59.1486 62.581 59.545 68.202C59.899 73.1009 60.9609 78.0988 61.5839 83.0402C62.4476 88.4346 63.9201 93.4893 66.1147 98.4873C66.2987 99.2235 66.7943 99.8606 67.4314 100.37C68.0686 100.88 68.7623 101.121 69.626 101.092C72.7551 101.22 75.7142 101.46 78.7017 101.574C79.6079 100.115 80.1742 99.0535 80.8821 98.0057C86.1775 89.284 94.078 84.6117 104.173 84.9374C114.282 85.1214 121.673 90.8132 126.048 99.9596C127.28 102.551 127.139 102.537 129.899 102.183L130.239 99.6624C130.268 96.236 130.31 92.668 130.324 89.2416C130.565 83.1251 130.806 76.8811 131.046 70.7646C131.287 64.6481 131.273 58.2201 131.386 51.962C131.471 44.826 131.853 37.6052 131.938 30.4693C132.023 25.4855 134.501 22.951 138.791 22.951C146.819 22.7245 154.904 22.0733 162.932 21.8468C174.839 21.422 186.746 20.9831 198.668 20.5583C203.114 20.4309 205.818 22.6396 205.946 27.0854C206.441 39.5733 206.809 51.9054 207.333 64.2517C207.687 74.5875 207.885 85.0365 208.225 95.3581C208.353 97.6659 208.494 99.8181 208.735 102.282L244.995 102.353L244.896 102.055L244.882 102.098ZM195.695 31.064C187.978 31.0499 180.786 31.5311 173.168 31.8143C173.593 43.7217 173.919 55.3318 174.244 66.9419C174.57 78.5519 175.179 90.2044 175.632 101.97C183.292 102.409 190.47 102.069 198.187 102.083C197.465 78.2828 196.7 54.907 195.836 31.078H195.695V31.064ZM142.302 33.0178C141.679 56.2095 140.957 78.9626 140.349 102.027C144.44 102.423 148.716 102.423 152.893 102.253C156.9 102.211 160.992 102.607 165.211 102.013C164.985 93.9848 164.701 86.3816 164.432 78.6369C164.163 70.8921 163.923 63.0057 163.512 55.2327C163.102 47.4738 163.243 39.9131 162.408 32.2391L142.317 33.0178H142.302ZM283.309 102.013L302.465 101.829C302.494 89.6947 301.743 78.028 301.276 66.4038C300.823 54.638 300.681 42.7589 299.69 30.7808L283.153 30.5967C283.153 54.4398 283.464 78.0562 283.45 102.041H283.309V102.013ZM258.064 30.2852C257.186 54.2982 256.195 78.0279 255.317 102.041L272.902 101.928L272.647 30.2002C267.479 30.3701 262.892 29.4782 258.092 30.1437V30.2852H258.064ZM99.7556 125.091C102.064 124.964 104.258 124.539 106.467 123.973C109.001 123.166 111.323 121.764 113.15 119.853C114.976 117.941 116.293 115.548 116.902 113.07C118.856 106.897 115.5 96.6041 105.518 95.4289C101.865 94.9476 98.3398 95.7686 95.0833 97.6234C91.9826 99.5065 89.6039 102.324 88.4429 105.751C85.1581 115.463 91.3029 124.128 99.7415 125.091H99.7556ZM340.934 67.9187C340.071 61.519 339.037 55.2468 338.287 49.0029C337.31 42.3059 335.186 35.7362 331.675 29.8463C329.961 26.6181 327.441 23.9989 324.425 22.0309L324.057 24.8342C324.411 31.8852 324.935 38.8087 325.289 45.8455C325.402 50.4329 326.365 54.992 327.937 59.3387C329.933 64.7473 334.662 67.9329 340.963 67.763V67.9046L340.934 67.9187ZM312.829 112.051L282.813 112.235C282.714 112.943 282.643 113.495 282.7 114.217C284.611 119.187 287.641 123.293 292.653 125.389C297.396 127.3 303.81 127.427 307.959 121.976C309.346 120.164 310.72 118.338 311.838 116.341C312.263 115.251 313.297 113.963 312.688 112.023H312.829V112.051Z" fill="#102185"/>
<path d="M8.92814 55.7142L4.72302 55.162C1.49484 54.7373 -0.218355 52.5144 0.022342 49.6827C0.121453 48.9747 0.206405 48.281 0.560371 47.7571C0.914338 47.2332 1.28246 46.5678 1.76386 46.1997C2.24525 45.8316 2.85407 45.4917 3.59032 45.2935C4.18499 45.0811 4.90708 45.0387 5.61501 45.1378C9.02725 45.3077 12.5669 45.4776 15.9508 45.789C20.34 46.0864 24.5876 46.3554 28.9768 46.6527C30.0953 46.7943 31.228 46.9501 32.2758 47.6581C33.1961 48.2103 33.8191 49.0031 34.258 49.9234C34.7111 50.8437 34.7252 51.8349 34.5695 52.9675C34.2863 54.0719 33.5925 54.978 32.7996 55.5868C32.0068 56.1957 30.9449 56.6345 29.7839 56.7619C28.0565 56.8186 26.2017 56.8611 24.3611 56.7619C19.2498 56.5212 14.1668 56.1249 9.06973 55.7426H8.92814V55.7142Z" fill="#102185"/>
<path d="M14.068 77.377C13.091 77.2495 12.1424 76.8389 11.2079 76.2867C10.415 75.7487 9.80622 74.9559 9.3673 74.0497C9.05581 73.1577 8.90006 72.1383 9.16908 71.1613C9.2965 70.1844 9.83453 69.3914 10.6416 68.641C11.2929 68.0181 12.2132 67.565 13.1052 67.2535C14.2804 66.9845 15.4414 66.8429 16.5882 66.857C22.195 66.6022 27.7736 66.4748 33.3804 66.22C34.2582 66.0501 35.2352 66.1775 36.0422 66.5739C36.8634 66.8288 37.6705 67.2111 38.2934 67.8766C38.9447 68.3863 39.2846 69.0092 39.6102 69.7596C39.9359 70.51 39.9925 71.2322 39.8934 71.9401C39.7801 72.7755 39.6952 73.4833 39.1713 74.1346C38.8032 74.8 38.166 75.2815 37.543 75.6355C36.6086 76.2301 35.4334 76.4991 34.2724 76.6265C28.793 77.0513 23.3419 77.1786 17.8767 77.4618C16.8997 77.3344 15.9086 77.2071 14.0538 77.2496V77.3911L14.068 77.377Z" fill="#102185"/>
<path d="M15.2994 92.965C15.4127 92.1297 15.8233 91.1811 16.333 90.5298C16.8427 89.8785 17.6356 89.2695 18.5417 88.958C19.6036 88.5333 20.6372 88.236 21.8124 87.967C25.4936 87.16 29.3165 86.2396 32.9977 85.4467C33.5924 85.2344 34.1729 85.1777 34.895 85.1211C38.2364 84.7105 40.6434 85.8857 41.2947 88.5334C41.4788 89.2696 41.5354 89.9918 41.4363 90.6997C41.3372 91.4076 41.2522 92.1013 40.7425 92.7526C40.3744 93.4181 39.8788 93.9277 39.2559 94.2675C38.6329 94.6073 38.0241 94.9613 37.2878 95.1453C31.95 96.5895 26.3573 97.8498 20.9487 98.8409C20.2125 99.0249 19.3629 98.9117 18.5417 98.671C17.7064 98.5577 17.0551 98.048 16.5595 97.4108C15.9082 96.9011 15.5826 96.1365 15.2569 95.3861C15.0729 94.6498 15.0446 93.7862 15.1437 92.9509H15.2852L15.2994 92.965Z" fill="#102185"/>
<path d="M77.895 70.9491C71.5094 70.68 69.0458 69.7881 68.6069 62.2982C67.9698 53.0809 67.4601 43.8637 66.9645 34.6606C67.0636 33.9527 66.8937 33.0748 66.9787 32.3811C67.2194 28.4167 69.0742 26.2363 73.2368 26.0664C77.8384 25.8115 82.4258 25.7123 87.1548 25.6132C96.7402 25.4433 106.354 25.1461 115.939 24.9762C117.1 24.8487 118.219 24.9903 119.352 25.1461C120.329 25.2735 121.277 25.6841 122.042 26.3637C122.806 27.0291 123.401 27.9777 123.557 28.9972C123.826 30.1723 124.081 31.4891 124.194 32.7917C123.953 43.3257 123.84 53.888 123.472 64.2521L123.174 66.5032C123.033 67.6218 122.481 68.5562 121.801 69.3208C120.994 70.0712 120.06 70.6659 118.898 70.7933C117.44 71.034 115.84 71.2464 114.254 71.3314C101.993 71.1473 89.7458 70.9633 78.0649 70.7085L77.8808 70.9632L77.895 70.9491ZM77.7676 36.218C77.8384 44.3733 78.6454 52.3306 79.0135 60.3726L112.513 60.7833C113.589 52.6421 113.348 38.186 112.414 35.4959L77.7534 36.218H77.7676Z" fill="#102185"/>
<path d="M239.445 56.6766C238.851 62.3117 237.52 63.6992 232.734 64.2231C228.09 64.7611 223.489 65.0018 218.901 65.1151C218.179 65.1575 217.344 65.0585 216.65 64.8178C215.956 64.5771 215.163 64.1948 214.668 63.5576C214.016 63.0479 213.677 62.425 213.351 61.6746C213.025 60.9242 212.827 60.1738 212.94 59.3384C212.785 56.181 212.629 53.0095 212.629 49.7247C212.558 42.7162 212.629 35.5945 212.558 28.586C212.487 27.0002 212.983 25.3577 213.875 24.041C214.908 22.7525 216.296 21.9313 217.91 21.5774C218.207 21.4783 218.646 21.3934 219.071 21.45C224.324 21.719 229.605 21.6907 234.801 22.3845C236.203 22.5686 237.406 23.1632 238.412 24.2817C239.261 25.4003 239.799 26.7454 239.771 28.0338C239.771 30.1717 239.913 32.3379 239.927 34.4758C239.785 42.0224 239.644 49.5831 239.629 56.2801L239.431 56.6766H239.445ZM229.194 32.6212L225.966 32.1963C224.989 32.0689 224.239 32.253 222.965 32.2247C222.568 39.6013 223.05 46.808 223.021 54.5103L229.081 54.0289L229.194 32.6212Z" fill="#102185"/>
</svg>

<svg xmlns="http://www.w3.org/2000/svg" width="355" height="138" fill="none" viewBox="0 0 355 138"><path fill="#102185" d="M324.071 112.391c-1.076 6.003-3.653 11.511-7.674 15.985-8.905 11.256-27.014 12.148-37.393-.212-3.624-3.908-6.003-8.651-7.022-13.918-.213-.595-.269-1.175-.482-1.784-23.985-.014-47.842-.029-71.713.113-23.844 0-47.559.014-71.714.113-.453 1.232-1.019 2.294-1.317 3.54a26.6 26.6 0 0 1-4.502 9.26c-2.067 2.718-4.814 5.083-7.731 6.697-3.086 1.741-6.357 2.732-9.84 3.129s-6.867.099-10.166-.906c-9.784-2.719-15.688-9.926-17.174-20.261-.071-.581-.128-1.161-.284-2.181-1.982-.113-3.95-.382-5.805-.34-7.32.326-11.808-2.548-14.668-8.934a71.8 71.8 0 0 1-5.748-20.317c-.68-5.664-1.643-11.356-2.025-17.118-.482-7.207-.397-14.329-.595-21.507-.297-5.324-.17-10.59.651-15.773a44.4 44.4 0 0 1 1.997-8.594c2.45-6.668 7.518-10.435 14.2-12.403 7.986-2.095 16-3.313 24.325-3.653a1569 1569 0 0 1 37.606-1.472c8.892-.255 17.882-.213 26.887-.312 7.306-.184 14.626-.495 21.946-.68 4.163-.17 8.425-.028 12.715-.042 7.447-.156 14.909-.467 22.2-.495C217.188.17 223.502.014 229.93 0c8.127.07 16.127.127 24.24.34 9.118.198 18.194.68 27.284 1.02 8.537.268 17.245.268 25.726 1.967 3.653.482 7.221 1.53 10.746 2.988 12.319 5.196 21.649 13.422 26.675 26.221 2.506 7.037 4.121 14.258 4.998 21.649 1.105 7.858 2.209 15.716 3.045 23.531.892 8.397 1.345 16.892 2.095 25.274.113 2.435-.765 4.757-2.435 6.541-1.657 1.784-3.936 2.761-6.23 2.888-4.432 0-8.991-.042-13.423-.056-2.718.07-5.451.141-8.452.169l-.128-.155zm-79.189-10.293c.028-3.427.113-6.273.226-9.26.439-9.798.85-19.454 1.289-29.252.142-3.27.269-6.385.411-9.656.169-6.683.339-13.38.637-20.048.056-2.563.099-5.126.297-7.674.255-4.106 2.634-6.938 7.037-6.782 6.669.311 13.38.34 19.949.34 5.706.042 11.554.099 17.26.127 3.851.085 7.688.156 11.497.51 4.53.311 6.414 2.28 6.668 6.88.057 1.728.1 3.583.142 5.452l1.076 28.7c.368 10.193.864 20.529 1.232 30.723.156 3.158.311 6.33.58 9.642l30.994-.056-2.068-22.272c-.283-.042-.396-.198-.665-.368-1.402-.184-2.803-.368-4.191-.694-7.631-1.713-14.329-5.026-18.081-12.374-2.265-4.446-3.624-9.33-4.106-14.4-.453-4.205-.608-8.367-.764-12.672-.411-7.758-.807-15.531-1.175-23.574-4.46-1.869-9.048-2.902-13.847-3.256-7.632-.58-15.32-.736-22.994-1.034-8.396-.255-16.906-.65-25.316-.764-7.83-.17-15.688-.213-23.39-.227-6.428 0-12.729.184-19.185.326l-22.201.495c-4.587.114-9.146.085-13.875.17-7.306.184-14.612.354-21.918.538-6.003.071-11.992 0-18.024.199-7.306.184-14.512.65-21.804.693-9.571.029-19.213.61-28.671 1.94-4.8.651-9.614 1.444-14.343 2.676-2.053.439-3.908 1.487-5.267 3.157-1.345 1.544-2.18 3.568-2.308 5.55-.949 5.013-1.345 10.251-1.317 15.391.283 3.327.128 6.584.255 10.024.255 5.607.227 11.313.623 16.934.354 4.899 1.416 9.897 2.039 14.838.864 5.395 2.336 10.45 4.53 15.447.185.737.68 1.374 1.317 1.883.638.51 1.331.751 2.195.722 3.13.128 6.088.368 9.076.482.906-1.459 1.472-2.52 2.18-3.568 5.295-8.722 13.196-13.394 23.291-13.069 10.109.184 17.5 5.876 21.875 15.023 1.232 2.591 1.091 2.577 3.851 2.223l.34-2.52c.029-3.427.071-6.995.085-10.421.241-6.117.482-12.36.722-18.477.241-6.117.227-12.545.34-18.803.085-7.136.467-14.357.552-21.493.085-4.984 2.563-7.518 6.853-7.518 8.028-.227 16.113-.878 24.141-1.104 11.907-.425 23.814-.864 35.736-1.289 4.446-.127 7.15 2.082 7.278 6.527.495 12.488.863 24.82 1.387 37.167.354 10.336.552 20.785.892 31.106.128 2.308.269 4.46.51 6.924l36.26.071-.099-.298zm-49.187-71.034c-7.717-.014-14.909.467-22.527.75.425 11.908.751 23.518 1.076 35.128s.935 23.262 1.388 35.028c7.66.439 14.838.099 22.555.113-.722-23.8-1.487-47.176-2.351-71.005h-.141zm-53.393 1.954c-.623 23.191-1.345 45.945-1.953 69.009 4.091.396 8.367.396 12.544.226 4.007-.042 8.099.354 12.318-.24-.226-8.028-.51-15.631-.779-23.376s-.509-15.631-.92-23.404c-.41-7.76-.269-15.32-1.104-22.994l-20.091.779zm141.007 68.995 19.156-.184c.029-12.134-.722-23.801-1.189-35.425-.453-11.766-.595-23.645-1.586-35.623l-16.537-.184c0 23.843.311 47.46.297 71.444h-.141zm-25.245-71.728c-.878 24.013-1.869 47.743-2.747 71.756l17.585-.113-.255-71.728c-5.168.17-9.755-.722-14.555-.056v.141zM99.756 125.091c2.308-.127 4.502-.552 6.711-1.118 2.534-.807 4.856-2.209 6.683-4.12s3.143-4.305 3.752-6.783c1.954-6.173-1.402-16.466-11.384-17.641-3.653-.481-7.178.34-10.435 2.194-3.1 1.883-5.48 4.701-6.64 8.128-3.285 9.712 2.86 18.377 11.299 19.34zm241.178-57.172c-.863-6.4-1.897-12.672-2.647-18.916-.977-6.697-3.101-13.267-6.612-19.157-1.714-3.228-4.234-5.847-7.25-7.815l-.368 2.803c.354 7.051.878 13.975 1.232 21.012.113 4.587 1.076 9.146 2.648 13.493 1.996 5.408 6.725 8.594 13.026 8.424v.142zm-28.105 44.132-30.016.184c-.099.708-.17 1.26-.113 1.982 1.911 4.97 4.941 9.076 9.953 11.172 4.743 1.911 11.157 2.038 15.306-3.413 1.387-1.812 2.761-3.638 3.879-5.635.425-1.09 1.459-2.378.85-4.318h.141zM8.928 55.714l-4.205-.552c-3.228-.425-4.941-2.648-4.7-5.48.098-.707.183-1.401.537-1.925s.722-1.19 1.204-1.557a5.3 5.3 0 0 1 1.826-.907c.595-.212 1.317-.254 2.025-.155 3.412.17 6.952.34 10.336.651 4.389.297 8.637.566 13.026.864 1.118.141 2.251.297 3.299 1.005.92.552 1.543 1.345 1.982 2.265.453.92.467 1.912.311 3.044-.283 1.105-.977 2.011-1.77 2.62-.792.609-1.854 1.047-3.015 1.175-1.727.057-3.582.1-5.423 0-5.111-.24-10.194-.637-15.291-1.02h-.142zM14.068 77.377c-.977-.127-1.926-.538-2.86-1.09-.793-.538-1.402-1.331-1.84-2.237-.312-.892-.468-1.912-.199-2.889.127-.977.666-1.77 1.473-2.52.65-.623 1.571-1.076 2.463-1.388a14.8 14.8 0 0 1 3.483-.396c5.607-.255 11.186-.382 16.792-.637a4.3 4.3 0 0 1 2.662.354c.821.255 1.628.637 2.251 1.303.652.51.992 1.132 1.317 1.883a3.95 3.95 0 0 1 .283 2.18c-.113.835-.198 1.543-.722 2.195-.368.665-1.005 1.146-1.628 1.5-.934.595-2.11.864-3.27.991-5.48.425-10.931.553-16.396.836a22 22 0 0 0-3.823-.212v.141zM15.3 92.965c.113-.835.523-1.784 1.033-2.435a4.9 4.9 0 0 1 2.209-1.572c1.062-.425 2.095-.722 3.27-.991 3.682-.807 7.505-1.727 11.186-2.52.594-.213 1.175-.27 1.897-.326 3.341-.41 5.748.765 6.4 3.412.184.737.24 1.459.141 2.167s-.184 1.401-.694 2.053c-.368.665-.863 1.175-1.486 1.514-.623.34-1.232.694-1.968.878a205 205 0 0 1-16.34 3.696c-.736.184-1.585.07-2.406-.17-.836-.113-1.487-.623-1.983-1.26-.65-.51-.976-1.275-1.302-2.025-.184-.736-.212-1.6-.113-2.435h.141z"/><path fill="#102185" d="M77.895 70.95c-6.386-.27-8.85-1.162-9.288-8.652-.637-9.217-1.147-18.434-1.642-27.637.099-.708-.071-1.586.014-2.28.24-3.964 2.095-6.145 6.258-6.315 4.601-.255 9.189-.354 13.918-.453 9.585-.17 19.199-.467 28.784-.637 1.161-.127 2.28.014 3.413.17a5.03 5.03 0 0 1 2.69 1.218c.764.665 1.359 1.614 1.515 2.633.269 1.175.524 2.492.637 3.795-.241 10.534-.354 21.096-.722 31.46l-.298 2.251c-.141 1.119-.693 2.053-1.373 2.818-.807.75-1.741 1.345-2.903 1.472-1.458.241-3.058.453-4.644.538-12.261-.184-24.508-.368-36.19-.623l-.183.255zm-.127-34.732c.07 8.155.877 16.113 1.245 24.155l33.5.41c1.076-8.14.835-22.597-.099-25.287l-34.66.722zM239.445 56.677c-.594 5.635-1.925 7.022-6.711 7.546-4.644.538-9.245.779-13.833.892a6.1 6.1 0 0 1-2.251-.297c-.694-.24-1.487-.623-1.982-1.26-.652-.51-.991-1.133-1.317-1.883s-.524-1.501-.411-2.337c-.155-3.157-.311-6.328-.311-9.613-.071-7.009 0-14.13-.071-21.139-.071-1.586.425-3.228 1.317-4.545 1.033-1.288 2.421-2.11 4.035-2.464.297-.099.736-.184 1.161-.127 5.253.269 10.534.24 15.73.934 1.402.185 2.605.78 3.611 1.898.849 1.118 1.387 2.463 1.359 3.752 0 2.138.142 4.304.156 6.442-.142 7.546-.283 15.107-.298 21.804l-.198.397zM229.194 32.62l-3.228-.425c-.977-.127-1.727.057-3.001.029-.397 7.376.085 14.583.056 22.285l6.06-.481z"/></svg>
